X: 131230
T: Mick Duggan's
S: "Johnny O'Leary of Sliabh Luachra" (#146)
Z: B.Black
L: 1/8
M: 12/8
Q: 320
R: slide
K: D
F2B A2A F2B AFA|B/=c/^cd e/f/ed c2A B/c/BA|
F2B A2A F2B AFA|B/=c/^cd efe B2c d3 :|
f3 gfe d2c B2A|Bcd e/f/ed c2A B/c/BA|
A2f f2e d2c B/c/BA|Bcd efe B2c d3 :|
